X: 1
T: Martin Wilson's
M: 4/4
L: 1/8
R: strathspey
K: Amaj
A2 ag (3fga ec | dBcA BEGB | A2 ag (3fga ea |1 (3fga (3bag (3aec (3dcB :|2 (3fga (3bag aecA ||
F3 G (3AGF cF | (3ABc FA c2 cA | F2 FG (3AGF cF| (3cdc (3BAG AECE |
F2 FG (3AGF cF | (3ABc FA c2 cd | (3cdc (3BAG (3AGA(3CDE | (3FGA (3BAG (3 ABc (3dcB ||
